!!!OTL: Graf und Nonne (Die Nonne)
!!!OTL-incipit:Ich stand auf hohem Berge,
!!!ARE: Europa, Mitteleuropa, Deutschland (BRD), Nordrhein - Westfalen,
!!    Wipperfeld (Wipperfuerth) , Grund
!!!YOR: 8, S. 74
!!    1930 aufgezeichnet
!!!SCT: Q0155V
!!!TXL: @@ED
!!!YEM: Copyright 1995, estate of Helmut Schaffrath.
**kern	**text
*ICvox	*
*M3/4	*
*k[]	*
*C:	*
{4g	Ich
=1	=1
(4g	stand
4e)	.
4g	auf
=2	=2
(4ee	ho-
4dd)	.
4cc	-hem
=3	=3
4cc	Ber-
4b	-ge,
4r	.
=4	=4
4r	.
4r}	.
{4g	schaut
=5	=5
(4g	in
4b)	.
4dd	das
=6	=6
(4ff	tie-
4ee)	.
4dd	-fe
=7	=7
2.cc	Tal.
=8	=8
4r	.
4r}	.
{4ee	Da
=9	=9
4gg	sah
4gg	ich
4gg	ein
=10	=10
(4gg	Schiff-
4ff)	.
4ee	-lein
=11	=11
4ff	schwim-
4g	-men,
4g	ja
=12	=12
4a	schwim-
4g}	-men,
{4g	wo-
=13	=13
(4g	-rin
4b)	.
4dd	drei
=14	=14
(4ff	Gra-
4ee)	.
4dd	-fen
=15	=15
2.cc	war'n.
=16	=16
4r	.
4r}	.
==	==
!!!AGN: Ballade, Standesunterschied, vergebliche Werbung, Liebe, Klage
!! Anhaengsel an der dritten Zeile. Grundton in der zweigestrichenen
!!    Oktave.
!!!ONB: ESAC (Essen Associative Code) Database: BALLADE
!!!AMT: simple triple
!!!AIN: vox
!!!EED: Helmut Schaffrath
!!!EEV: 1.0
!!@@COMMENT:"Aufʒeichnung in Grund Wipperfeld (Wipperfürth), 1930,
!!durch Wilhelm Bosbach (DVA -A 191 945)"
!!@@END:
!!!source: Deutsche Volkslieder mit ihren Melodien. Herausgegeben vom Deutschen Volksliedarchiv. Achter Teil. Freiburg/Breisgau 1988.
!!!page: 74
!!!ENC: Anna Maria Matuszewska
!!!EEV: 2025/03/10
*-	*-
